X:44
T:Ash Plant, The
C:Traditional
M:C|
R:reel
K:Edor
BE (3EEE BAGA | BE (3EEE GFGA | (3BBB BA (3(Bcd) ef | gedB AGFA :|
(3BBB eB fBeB | (3BBB fe BAGA | (3BBB eB f2fe | efed BAGA |
(3BBB eB fBeB | (3BBB fe BAGA | (3(Bcd) ef g2ga | gedB AGFA |]

